X:1
T: Alexander Hay
C:
R:Jig
Q:180
K:G
M:6/8
L:1/16
|:d2|G2F2G2 B4d2|e4A2 A4d2|B4G2 G2F2G2|A6 A4D2|
G2F2G2 g4=f2|e4c2 c4A2|^G2A2^c2 a4g2|f6 f4ef|
g2f2e2 d2c2B2|e4A2 A4E2|E2A2c2 e4g2|f6 f4ef|
g4d2 e4A2|d4A2 B4G2|E4e2 F2d2B2|G6G4:|
